!!!!SEGMENT: pl-kk--kk-i-387--010_gorczycki-grzegorz-gerwazy--sub-tuum-praesidium.krn
!!!cenid: 18xx:1424
!!!COM: Gorczycki, Grzegorz Gerwazy
!!!COM-rismid: pe30009207
!!!CDT: ~1666-1734/04/30
!!!CNT: Polish
!!!OTL: Sub tuum praesidium
!!!PDT:
!!!AGN: Sacred
!!!SMS-siglum: PL-Kk
!!!SMS-shelfmark: Kk.I.387
!!!SMS-shelfwork: 010 W
!!!SMS-variant:
!!!SMS-altvar:
!!!NIFC-rismid: 1001139128
!!!URL-scan: http://repozytorium.nifc.pl/skany/pl-kk-nut--i-387
!!!ONB-nifc:
**kern	**text	**kern	**text	**dynam	**kern	**text	**dynam	**kern	**text	**dynam
*part4	*part4	*part3	*part3	*part3	*part2	*part2	*part2	*part1	*part1	*part1
*staff4	*staff4	*staff3	*staff3	*	*staff2	*staff2	*	*staff1	*staff1	*
*Ibass	*	*Itenor	*	*	*Ialto	*	*	*Isoprn	*	*
*I"Basso.	*	*I"Tenore.	*	*	*I"Alto.	*	*	*I"Soprano.	*	*
*I'B	*	*I'T	*	*	*I'A	*	*	*I'S	*	*
*clefF4	*	*clefC4	*	*	*clefC3	*	*	*clefC1	*	*
*k[]	*	*k[]	*	*	*k[]	*	*	*k[]	*	*
*a:	*	*a:	*	*	*a:	*	*	*a:	*	*
*M2/2	*	*M2/2	*	*	*M2/2	*	*	*M2/2	*	*
*met(c|)	*	*met(c|)	*	*	*met(c|)	*	*	*met(c|)	*	*
=1	=1	=1	=1	=1	=1	=1	=1	=1	=1	=1
*2\right	*	*2\right	*	*	*2\right	*	*	*2\right	*	*
!LO:TX:t=P:problem:all\right:global	!	!LO:TX:t=P:problem:all\right:global	!	!	!LO:TX:t=P:problem:all\right:global	!	!	!LO:TX:t=P:problem:all\right:global	!	!
!LO:TX:i:a:t=Offertorium	!	!LO:TX:i:a:t=Offertorium	!	!	!LO:TX:i:a:t=Offertorium.	!	!	!LO:TX:i:a:t=Offertorium	!	!
!LO:TX:i:a:t=No 10.	!	!LO:TX:i:a:t=No 10.	!	!	!LO:TX:i:a:t=No 10.	!	!	!LO:TX:i:a:t=No 10.	!	!
!LO:TX:a:t=P:problem: napis "Basso." nad pięciolinią	!	!LO:TX:a:t=P:problem: napis "Tenore." nad pięciolinią	!	!	!LO:TX:a:t=P:problem: napis "Alto." nad pięciolinią	!	!	!LO:TX:a:t=P:problem: napis "Soprano." nad pięciolinią	!	!
!LO:TX:a:t=P:problem: napis "No 10." przed kluczem	!	!LO:TX:a:t=P:problem: napis "No 10." przed kluczem	!	!	!LO:TX:a:t=P:problem: napis "No 10." przed kluczem	!	!	!LO:TX:a:t=P:problem: napis "No 10." przed kluczem	!	!
!LO:TX:i:a:t=A. mol.	!	!	!	!	!	!	!	!	!	!
!LO:TX:t=P:problem:nuta przez kreskę taktową	!	!LO:TX:a:t=2.	!	!	!LO:TX:i:a:t=in A. mol.	!	!	!LO:TX:a:t=6	!	!
!	!	!LO:TX:i:a:t=in A mol.	!	!	!LO:TX:a:t=4.	!	!	!LO:TX:i:a:t=in A. mol.	!	!
!	!	!LO:N:vis=0	!	!	!LO:N:vis=00	!	!	!LO:N:vis=00	!	!
[y1E	Sub	0r	.	.	00r	.	.	00r	.	.
=2	=2	=2	=2	=2	=2	=2	=2	=2	=2	=2
!LO:N:xstem:cue	!	!	!	!	!	!	!	!	!	!
!LO:N:vis=4	!	!	!	!	!	!	!	!	!	!
2E\]	.	.	.	.	.	.	.	.	.	.
2E\	tu-	.	.	.	.	.	.	.	.	.
=3	=3	=3	=3	=3	=3	=3	=3	=3	=3	=3
!	!	!LO:TX:a:t=P:problem:oznaczenie dynamiczne na pięciolinii przed nutą	!	!	!	!	!	!	!	!
!	!	!LO:TX:t=P:problem:nuta przez kreskę taktową	!	!	!	!	!	!	!	!
!	!	!	!	!LO:DY:b:rj	!	!	!	!	!	!
1C	-um	[y1A	Sub	f	.	.	.	.	.	.
=4	=4	=4	=4	=4	=4	=4	=4	=4	=4	=4
!	!	!LO:N:xstem:cue	!	!	!	!	!	!	!	!
!	!	!LO:N:vis=4	!	!	!	!	!	!	!	!
1AA	pre-	2A\]	.	.	.	.	.	.	.	.
.	.	2A\	tu-	.	.	.	.	.	.	.
=5	=5	=5	=5	=5	=5	=5	=5	=5	=5	=5
!	!	!	!	!	!LO:TX:a:t=P:problem:oznaczenie dynamiczne na pięciolinii przed nutą	!	!	!	!	!
!	!	!	!	!	!	!	!	!LO:N:vis=0	!	!
!	!	!	!	!	!LO:TX:t=P:problem:nuta przez kreskę taktową	!	!LO:DY:b:rj	!	!	!
2.E\	-si-	2G#X/	-um	.	[y1e	Sub	p	0r	.	.
.	.	2E/	pre-	.	.	.	.	.	.	.
4E\	-di-	.	.	.	.	.	.	.	.	.
=6	=6	=6	=6	=6	=6	=6	=6	=6	=6	=6
!	!	!	!	!	!LO:N:xstem:cue	!	!	!	!	!
!	!	!	!	!	!LO:N:vis=4	!	!	!	!	!
2AA/	-um,	2.A\	-si-	.	2e\]	.	.	.	.	.
!LO:TX:t=P:problem:nuta przez kreskę taktową	!	!	!	!	!	!	!	!	!	!
[y2A\	con-	.	.	.	2e\	tu-	.	.	.	.
.	.	4A\	-di-	.	.	.	.	.	.	.
=7	=7	=7	=7	=7	=7	=7	=7	=7	=7	=7
!LO:N:xstem:cue	!	!	!	!	!	!	!	!LO:TX:t=P:problem:nuta przez kreskę taktową	!	!
4A\]	.	2A\	-um,	.	2c/	-um	.	[>1a	Sub	.
4G\	.	.	.	.	.	.	.	.	.	.
4F\	.	2c\	pre-	.	2A/	pre-	.	.	.	.
4E\	.	.	.	.	.	.	.	.	.	.
=8	=8	=8	=8	=8	=8	=8	=8	=8	=8	=8
!	!	!	!	!	!	!	!	!LO:N:xstem:cue	!	!
!	!	!	!	!	!	!	!	!LO:N:vis=4	!	!
2.D\	-fu-	2.d\	-si-	.	2.f\	-si-	.	2a\]	.	.
.	.	.	.	.	.	.	.	2a\	tu-	.
4D\	-gi-	4d\	-di-	.	4f\	-di-	.	.	.	.
!LO:LB:g=original	!	!	!	!	!	!	!	!	!	!
=9	=9	=9	=9	=9	=9	=9	=9	=9	=9	=9
1E	-mus,	1B	-um	.	1e	-um,	.	2g#X\	-um	.
.	.	.	.	.	.	.	.	2e/	pre-	.
!	!	!LO:LB:g=original	!	!	!	!	!	!	!	!
=10	=10	=10	=10	=10	=10	=10	=10	=10	=10	=10
!LO:TX:a:t=3.	!	!	!	!	!LO:TX:a:t=P:problem:oznaczenie dynamiczne na pięciolinii przed nutą	!	!LO:DY:b:rj	!LO:TX:a:t=P:problem:oznaczenie dynamiczne na pięciolinii przed nutą	!	!LO:DY:b:rj
!LO:N:vis=0	!	!	!	!	!	!	!	!	!	!
0r	.	2.e\	con-	.	1g#X	pre-	p	1b	-si-	f
.	.	4d\	.	.	.	.	.	.	.	.
=11	=11	=11	=11	=11	=11	=11	=11	=11	=11	=11
.	.	4c\	.	.	2.a\	.	.	2.cc\	.	.
.	.	4B\	.	.	.	.	.	.	.	.
.	.	2A\	.	.	.	.	.	.	.	.
.	.	.	.	.	4g\	.	.	4b\	-di-	.
!	!	!	!	!	!LO:LB:g=original	!	!	!	!	!
=12	=12	=12	=12	=12	=12	=12	=12	=12	=12	=12
1r	.	2d\	.	.	4f\	.	.	2a\	-um,	.
.	.	.	.	.	4d\	.	.	.	.	.
!	!	!	!	!	!	!	!	!LO:TX:t=P:problem:nuta przez kreskę taktową	!	!
.	.	[>2c\	-fu-	.	4e\	-si-	.	[y2ee\	con-	.
.	.	.	.	.	4d\	-di-	.	.	.	.
=13	=13	=13	=13	=13	=13	=13	=13	=13	=13	=13
!	!	!	!	!	!	!	!	!LO:N:xstem:cue	!	!
2.A\	con-	4c\]	.	.	2c\	-um,	.	4ee\]	.	.
.	.	4B\	-gi-	.	.	.	.	4dd\	.	.
!	!	!	!	!	!LO:TX:t=P:problem:nuta przez kreskę taktową	!	!	!	!	!
!	!	!	!	!	!	!	!	!	!	!
.	.	2A\	-mus,	.	[y2a\	con-	.	4cc\	.	.
4G\	.	.	.	.	.	.	.	4b\	.	.
!	!	!	!	!	!	!	!	!LO:LB:g=original	!	!
=14	=14	=14	=14	=14	=14	=14	=14	=14	=14	=14
!	!	!	!	!	!LO:N:xstem:cue	!	!	!	!	!
4F\	.	2.d\	con-	.	4a\]	.	.	2a\	.	.
4E\	.	.	.	.	4g\	.	.	.	.	.
!	!	!	!	!	!	!	!	!LO:TX:t=P:problem:nuta przez kreskę taktową	!	!
2D\	.	.	.	.	4f\	.	.	[y2dd\	.	.
.	.	4c\	.	.	4e\	.	.	.	.	.
=15	=15	=15	=15	=15	=15	=15	=15	=15	=15	=15
!	!	!	!	!	!	!	!	!LO:N:xstem:cue	!	!
2.G\	.	4B\	.	.	2.d\	-fu-	.	4dd\]	.	.
.	.	4A\	.	.	.	.	.	4cc\	.	.
.	.	4G\	.	.	.	.	.	4b\	.	.
4F\	.	4A\	.	.	4d\	-gi-	.	4a\	.	.
=16	=16	=16	=16	=16	=16	=16	=16	=16	=16	=16
2E\	.	4B\	.	.	2e\	-mus,	.	4g#X/	.	.
.	.	4c\	.	.	.	.	.	4e/	.	.
!	!	!LO:LB:g=original	!	!	!	!	!	!	!	!
2D\	.	2d\	.	.	4A/	con-	.	4f#X/	.	.
.	.	.	.	.	4B/	.	.	4g#/	.	.
=17	=17	=17	=17	=17	=17	=17	=17	=17	=17	=17
4C/	.	4A/	.	.	4c\	.	.	4a\	.	.
4BB/	.	4G#X/	.	.	4d\	.	.	4b\	.	.
4AA/	.	4c\	.	.	4e\	.	.	4cc\	.	.
4D\	.	4B\	.	.	4f\	.	.	4dd\	.	.
!	!	!	!	!	!LO:LB:g=original	!	!	!	!	!
=18	=18	=18	=18	=18	=18	=18	=18	=18	=18	=18
!	!	!	!	!	!LO:TX:a:t=P:problem:oznaczenie dynamiczne na pięciolinii przed nutą	!	!LO:DY:b:rj	!	!	!
2.E\	-fu-	2A\	-fu-	.	2.e\	-fu-	f	2cc\	-fu-	.
.	.	2G#X/	-gi-	.	.	.	.	4b\	.	.
4E\	-gi-	.	.	.	4e\	-gi-	.	4b\	-gi-	.
!LO:LB:g=original	!	!	!	!	!	!	!	!LO:LB:g=original	!	!
=19	=19	=19	=19	=19	=19	=19	=19	=19	=19	=19
1AA	-mus,	2A\	-mus,	.	1e	-mus,	.	2a\	-mus,	.
!	!	!	!	!	!	!	!	!LO:TX:a:t=P:problem:oznaczenie dynamiczne na pięciolinii przed nutą	!	!
!	!	!	!	!	!	!	!	!LO:TX:t=P:problem:nuta przez kreskę taktową	!	!LO:DY:b:rj
.	.	2r	.	.	.	.	.	[y2ee\	San-	p
=20	=20	=20	=20	=20	=20	=20	=20	=20	=20	=20
!	!	!LO:TX:a:t=1.	!	!	!	!	!	!LO:N:xstem:cue	!	!
2.A\	San-	1r	.	.	2r	.	.	4ee\]	.	.
.	.	.	.	.	.	.	.	4dd\	-cta	.
.	.	.	.	.	2a\	san-	.	2cc\	De-	.
4G\	-cta	.	.	.	.	.	.	.	.	.
=21	=21	=21	=21	=21	=21	=21	=21	=21	=21	=21
2F\	De-	2r	.	.	4a\	.	.	2a\	-i	.
.	.	.	.	.	4g\	-cta	.	.	.	.
!	!	!LO:TX:t=P:problem:nuta przez kreskę taktową	!	!	!	!	!	!	!	!
2D\	-i	[y2A\	san-	.	4f\	De-	.	4dd\	san-	.
.	.	.	.	.	4d\	-i	.	4dd\	-cta	.
=22	=22	=22	=22	=22	=22	=22	=22	=22	=22	=22
!LO:TX:t=P:problem:nuta przez kreskę taktową	!	!	!	!	!	!	!	!	!	!
!	!	!LO:N:xstem:cue	!	!	!LO:TX:a:t=P:problem:oznaczenie dynamiczne na pięciolinii przed nutą	!	!LO:DY:b:t=fo:rj	!	!	!
[y1AA	Ge-	4A\]	.	.	2e\	ge-	f	4cc#X\	De-	.
.	.	4G/	-cta	.	.	.	.	4cc#\	-i	.
.	.	4F/	De-	.	2f\	.	.	[>2dd\	Ge-	.
.	.	4D/	-i	.	.	.	.	.	.	.
!	!	!LO:LB:g=original	!	!	!	!	!	!	!	!
=23	=23	=23	=23	=23	=23	=23	=23	=23	=23	=23
!LO:N:xstem:cue	!	!	!	!	!	!	!	!	!	!
!LO:N:vis=4	!	!	!	!	!	!	!	!	!	!
2AA/]	.	2.A\	ge-	.	2.e\	.	.	2dd\]	.	.
2AA/	-ni-	.	.	.	.	.	.	2cc#X\	-ni-	.
.	.	4A\	-ni-	.	4e\	-ni-	.	.	.	.
=24	=24	=24	=24	=24	=24	=24	=24	=24	=24	=24
2D\	-trix,	2A\	-trix,	.	2f#X\	-trix,	.	2dd\	-trix,	.
[>2G\	no-	2r	.	.	2r	.	.	2b\	ne	.
!	!	!	!	!	!LO:LB:g=original	!	!	!LO:LB:g=original	!	!
=25	=25	=25	=25	=25	=25	=25	=25	=25	=25	=25
!	!	!	!	!	!LO:TX:a:t=1.	!	!	!	!	!
2G\]	.	2r	.	.	1r	.	.	2cc\	ne	.
2F#X\	-stras	2c\	no-	.	.	.	.	2a\	de-	.
=26	=26	=26	=26	=26	=26	=26	=26	=26	=26	=26
1G	de-	2c\	.	.	2r	.	.	2.dd\	-spi-	.
.	.	2B\	-stras	.	[>2g\	no-	.	.	.	.
.	.	.	.	.	.	.	.	4dd\	-ti-	.
!LO:LB:g=original	!	!	!	!	!	!	!	!	!	!
=27	=27	=27	=27	=27	=27	=27	=27	=27	=27	=27
2E\	-pre-	2c\	de-	.	2g\]	.	.	2g\	-as,	.
[>2F\	-ca-	2A\	-pre-	.	2fn\	-stras	.	2r	.	.
=28	=28	=28	=28	=28	=28	=28	=28	=28	=28	=28
2F\]	.	4B\	-ca-	.	2.g\	de-	.	2r	.	.
.	.	4B\	-ti-	.	.	.	.	.	.	.
2E\	-ti-	2c\	-o-	.	.	.	.	[>2cc\	no-	.
.	.	.	.	.	4e\	-pre-	.	.	.	.
=29	=29	=29	=29	=29	=29	=29	=29	=29	=29	=29
1D	-o-	1d	.	.	4f\	-ca-	.	2cc\]	.	.
.	.	.	.	.	4f\	-ti-	.	.	.	.
.	.	.	.	.	2f\	-o-	.	2b\	-stras	.
!	!	!LO:LB:g=original	!	!	!	!	!	!	!	!
=30	=30	=30	=30	=30	=30	=30	=30	=30	=30	=30
1C	-nes,	1e	-nes,	.	2e\	-nes,	.	2.cc\	de-	.
!	!	!	!	!	!LO:TX:a:t=P:problem:oznaczenie dynamiczne na pięciolinii przed nutą	!	!LO:DY:b:t=fo:rj	!	!	!
.	.	.	.	.	2e\	ne	f	.	.	.
.	.	.	.	.	.	.	.	4cc\	-pre-	.
=31	=31	=31	=31	=31	=31	=31	=31	=31	=31	=31
!LO:TX:a:t=7.	!	!LO:TX:a:t=4.	!	!	!	!	!	!	!	!
!LO:N:vis=00	!	!LO:N:vis=00	!	!	!	!	!	!	!	!
00r	.	00r	.	.	2f\	ne	.	4a\	-ca-	.
.	.	.	.	.	.	.	.	4b\	-ti-	.
.	.	.	.	.	2d\	de-	.	[>2cc\	-o-	.
!	!	!	!	!	!LO:LB:g=original	!	!	!LO:LB:g=original	!	!
=32	=32	=32	=32	=32	=32	=32	=32	=32	=32	=32
.	.	.	.	.	2.g\	-spi-	.	2cc\]	.	.
.	.	.	.	.	.	.	.	2b\	-nes	.
.	.	.	.	.	4g\	-ti-	.	.	.	.
=33	=33	=33	=33	=33	=33	=33	=33	=33	=33	=33
.	.	.	.	.	2c\	-as,	.	2cc\	ne	.
!	!	!	!	!	!LO:TX:a:t=P:problem:oznaczenie dynamiczne na pięciolinii przed nutą	!	!LO:DY:b:rj	!	!	!
.	.	.	.	.	[>2g\	no-	f	2b\	ne	.
=34	=34	=34	=34	=34	=34	=34	=34	=34	=34	=34
.	.	.	.	.	2g\]	.	.	2cc\	ne	.
.	.	.	.	.	2f#X\	-stras	.	2a\	de-	.
=35	=35	=35	=35	=35	=35	=35	=35	=35	=35	=35
!LO:N:vis=0	!	!	!	!	!	!	!	!	!	!
0r	.	2r	.	.	2.g\	de-	.	2.dd\	-spi-	.
.	.	2B\	ne	.	.	.	.	.	.	.
.	.	.	.	.	4g\	-pre-	.	4dd\	-ti-	.
=36	=36	=36	=36	=36	=36	=36	=36	=36	=36	=36
.	.	2c\	ne	.	4e\	-ca-	.	2g\	-as,	.
.	.	.	.	.	4f#X\	-ti-	.	.	.	.
.	.	2A\	de-	.	[>2g\	-o-	.	4cc\	ne	.
.	.	.	.	.	.	.	.	4b\	de-	.
=37	=37	=37	=37	=37	=37	=37	=37	=37	=37	=37
!	!	!	!	!	!	!	!	!LO:TX:a:t=P:problem:oznaczenie dynamiczne na pięciolinii przed nutą	!	!LO:DY:b:rj
1r	.	2.d\	-spi-	.	2g\]	.	.	2.a\	-spi-	p
.	.	.	.	.	2f#X\	.	.	.	.	.
.	.	4d\	-ti-	.	.	.	.	4a\	-ti-	.
=38	=38	=38	=38	=38	=38	=38	=38	=38	=38	=38
2r	.	2G/	-as,	.	2g\	-nes,	.	2b\	-as,	.
2E\	ne	2G/	ne	.	2e\	ne	.	[>2cc\	ne	.
!	!	!	!	!	!LO:LB:g=original	!	!	!LO:LB:g=original	!	!
=39	=39	=39	=39	=39	=39	=39	=39	=39	=39	=39
2F\	ne	2A\	ne	.	2a\	ne	.	2cc\]	.	.
!	!	!	!	!	!	!	!	!LO:TX:a:t=P:problem:oznaczenie dynamiczne na pięciolinii przed nutą	!	!LO:DY:b:rj
2D\	de-	[>2c\	de-	.	2a\	de-	.	2ff\	de-	f
=40	=40	=40	=40	=40	=40	=40	=40	=40	=40	=40
2.G\	-spi-	2c\]	.	.	2.g\	-spi-	.	2.dd\	-spi-	.
.	.	4B\	-spi-	.	.	.	.	.	.	.
4G\	-ti-	4B\	-ci-	.	4fn\	-ti-	.	4dd\	-ti-	.
!LO:LB:g=original	!	!LO:LB:g=original	!	!	!	!	!	!	!	!
=41	=41	=41	=41	=41	=41	=41	=41	=41	=41	=41
!	!	!	!	!	!LO:TX:a:t=2	!	!	!LO:N:vis=0	!	!
!	!	!	!	!	!LO:N:vis=0	!	!	!	!	!
2C/	-as,	1c	-as,	.	0e	-as,	.	0cc	-as,	.
[>2A\	in	.	.	.	.	.	.	.	.	.
=42	=42	=42	=42	=42	=42	=42	=42	=42	=42	=42
2A\]	.	2r	.	.	.	.	.	.	.	.
2A\	ne-	[>2e\	in	.	.	.	.	.	.	.
=43	=43	=43	=43	=43	=43	=43	=43	=43	=43	=43
!	!	!	!	!	!LO:TX:a:t=1.	!	!	!LO:TX:a:t=4.	!	!
!	!	!	!	!	!	!	!	!LO:N:vis=00	!	!
2G\	-ce-	2e\]	.	.	1r	.	.	00r	.	.
2E\	-si-	2e\	ne-	.	.	.	.	.	.	.
=44	=44	=44	=44	=44	=44	=44	=44	=44	=44	=44
!	!	!	!	!	!LO:TX:a:t=P:problem:oznaczenie dynamiczne na pięciolinii przed nutą	!	!LO:DY:b:rj	!	!	!
2.F\	-ta-	2c\	-ce-	.	2a\	in	f	.	.	.
.	.	2A\	-si-	.	2a\	ne-	.	.	.	.
4F\	-ti-	.	.	.	.	.	.	.	.	.
=45	=45	=45	=45	=45	=45	=45	=45	=45	=45	=45
1E	-bus	2B\	-ta-	.	2g\	-ce-	.	.	.	.
!	!	!LO:TX:t=P:problem:nuta przez kreskę taktową	!	!	!	!	!	!	!	!
.	.	[y2c\	.	.	2e\	-si-	.	.	.	.
=46	=46	=46	=46	=46	=46	=46	=46	=46	=46	=46
!	!	!LO:N:xstem:cue	!	!	!	!	!	!	!	!
1D	no-	4c\]	.	.	2.f\	-ta-	.	.	.	.
.	.	4c\	-ti-	.	.	.	.	.	.	.
.	.	[>2B\	-bus	.	.	.	.	.	.	.
.	.	.	.	.	4f\	-ti-	.	.	.	.
=47	=47	=47	=47	=47	=47	=47	=47	=47	=47	=47
!	!	!	!	!	!	!	!	!LO:TX:a:t=P:problem:oznaczenie dynamiczne na pięciolinii przed nutą	!	!LO:DY:b:rj
1C	.	2B\]	.	.	1e	-bus	.	2ee\	in	p
.	.	[>2A\	no-	.	.	.	.	2ee\	ne-	.
!	!	!	!	!	!LO:LB:g=original	!	!	!	!	!
=48	=48	=48	=48	=48	=48	=48	=48	=48	=48	=48
!	!	!	!	!	!LO:TX:a:t=1.	!	!	!	!	!
1BB	.	2A\]	.	.	1r	.	.	2dd\	-ce-	.
.	.	2G#X/	.	.	.	.	.	2b\	-si-	.
!LO:LB:g=original	!	!LO:LB:g=original	!	!	!	!	!	!	!	!
=49	=49	=49	=49	=49	=49	=49	=49	=49	=49	=49
!	!	!	!	!	!LO:TX:a:t=P:problem:oznaczenie dynamiczne na pięciolinii przed nutą	!	!LO:DY:b:rj	!	!	!
2.AA/	.	4A\	.	.	4e\	in	p	2.cc\	-ta-	.
.	.	4B\	.	.	4e\	ne-	.	.	.	.
.	.	4c\	.	.	4e\	-ce-	.	.	.	.
4BB/	.	4d\	.	.	4e\	-si-	.	4b\	-ti-	.
=50	=50	=50	=50	=50	=50	=50	=50	=50	=50	=50
2C/	.	2e\	.	.	4c/	-ta-	.	2a\	-bus	.
.	.	.	.	.	4B/	-ti-	.	.	.	.
2D\	.	4d\	.	.	2A/	-bus	.	[>2a\	no-	.
.	.	4c\	.	.	.	.	.	.	.	.
!	!	!	!	!	!	!	!	!LO:LB:g=original	!	!
=51	=51	=51	=51	=51	=51	=51	=51	=51	=51	=51
1E	.	1B	.	.	1e	nos-	.	2a\]	.	.
.	.	.	.	.	.	.	.	2g#X\	.	.
=52	=52	=52	=52	=52	=52	=52	=52	=52	=52	=52
1AA	-stris.	1c#X;>	-stris.	.	1e	-tris,	.	1a	-stris,	.
=53||	=53||	=53||	=53||	=53||	=53||	=53||	=53||	=53||	=53||	=53||
*M3/4	*	*M3/4	*	*	*M3/4	*	*	*M3/4	*	*
4A\	Sed	4c#X\	Sed	.	4e\	Sed	.	4a\	Sed	.
4A\	a	4c#\	a	.	4e\	a	.	4a\	a	.
4A\	pe-	4c#\	pe-	.	4e\	pe-	.	4a\	pe-	.
=54	=54	=54	=54	=54	=54	=54	=54	=54	=54	=54
4.D\	-ri-	4.d\	-ri-	.	4.f\	-ri-	.	4.a\	-ri-	.
8D\	-cu-	8d\	-cu-	.	8f\	-cu-	.	8a\	-cu-	.
4D\	-lis	4d\	-lis	.	4f\	-lis	.	4a\	-lis	.
!	!	!LO:LB:g=original	!	!	!LO:LB:g=original	!	!	!	!	!
=55	=55	=55	=55	=55	=55	=55	=55	=55	=55	=55
2G\	cun-	2B\	cun-	.	2d\	cun-	.	2b\	cun-	.
4G\	-ctis,	4B\	-ctis	.	4d\	-ctis	.	4b\	-ctis	.
!LO:LB:g=original	!	!	!	!	!	!	!	!	!	!
=56	=56	=56	=56	=56	=56	=56	=56	=56	=56	=56
!	!	!	!	!	!	!	!	!LO:TX:a:t=P:problem:oznaczenie dynamiczne na pięciolinii przed nutą	!	!LO:DY:b:rj
4.c\	li-	4.c\	li-	.	4.e\	li-	.	4.ee\	li-	f
8c\	-be-	8c\	-be-	.	8e\	-be-	.	8ee\	-be-	.
8B\	-ra	8d\	-ra	.	8g\	-ra	.	8dd\	-ra	.
8B\	nos	8d\	nos	.	8g\	nos	.	8dd\	nos	.
!	!	!	!	!	!	!	!	!LO:LB:g=original	!	!
=57	=57	=57	=57	=57	=57	=57	=57	=57	=57	=57
2c\	sem-	2e\	sem-	.	2g\	sem-	.	2cc\	sem-	.
4C/	-per,	4e\	-per,	.	4g\	-per,	.	4cc\	-per	.
=58	=58	=58	=58	=58	=58	=58	=58	=58	=58	=58
4r	.	4r	.	.	4.g\	li-	.	4r	.	.
4c\	sem-	4e\	sem-	.	.	.	.	4cc\	sem-	.
.	.	.	.	.	8g\	-be-	.	.	.	.
4B\	-per	4d\	-per	.	8g\	-ra	.	4g\	-per	.
.	.	.	.	.	8g\	nos	.	.	.	.
=59	=59	=59	=59	=59	=59	=59	=59	=59	=59	=59
2c\	sem-	2e\	sem-	.	2g\	sem-	.	2cc\	sem-	.
4G\	-per,	4d\	-per	.	4g\	-per,	.	4b\	-per	.
=60	=60	=60	=60	=60	=60	=60	=60	=60	=60	=60
!	!	!	!	!	!	!	!	!LO:TX:a:t=P:problem:oznaczenie dynamiczne na pięciolinii przed nutą	!	!LO:DY:b:rj
4r	.	4r	.	.	4r	.	.	4.ee\	li-	f
!	!	!	!	!	!LO:TX:a:t=P:problem:oznaczenie dynamiczne na pięciolinii przed nutą	!	!LO:DY:b:rj	!	!	!
4A\	sem-	4c\	sem-	.	4e\	sem-	f	.	.	.
.	.	.	.	.	.	.	.	8ee\	-be-	.
4G#X\	-per	4B\	-per	.	4e\	-per,	.	8ee\	-ra	.
.	.	.	.	.	.	.	.	8ee\	nos	.
!	!	!LO:LB:g=original	!	!	!LO:LB:g=original	!	!	!	!	!
=61	=61	=61	=61	=61	=61	=61	=61	=61	=61	=61
2A\	sem-	2A/	sem-	.	2c\	sem-	.	2ee\	sem-	.
4E\	-per,	4G#X/	-per,	.	4e\	-per,	.	4ee\	-per	.
!LO:LB:g=original	!	!	!	!	!	!	!	!	!	!
=62	=62	=62	=62	=62	=62	=62	=62	=62	=62	=62
!	!	!LO:TX:a:t=P:problem:oznaczenie dynamiczne na pięciolinii przed nutą	!	!LO:DY:b:rj	!	!	!	!	!	!
4r	.	4.c\	li-	f	4r	.	.	4r	.	.
!	!	!	!	!	!LO:TX:a:t=P:problem:oznaczenie dynamiczne na pięciolinii przed nutą	!	!LO:DY:b:rj	!	!	!
4F\	sem-	.	.	.	4a\	sem-	f	4cc\	sem-	.
.	.	8c\	-be-	.	.	.	.	.	.	.
4E\	-per	8c\	-ra	.	4g#X\	-per	.	4ee\	-per,	.
.	.	8c\	nos	.	.	.	.	.	.	.
!	!	!	!	!	!	!	!	!LO:LB:g=original	!	!
=63	=63	=63	=63	=63	=63	=63	=63	=63	=63	=63
2F\	sem-	2c\	sem-	.	2a\	sem-	.	2cc\	sem-	.
4C/	-per,	4c\	-per,	.	4g#X\	-per.	.	4cc\	-per,	.
=64	=64	=64	=64	=64	=64	=64	=64	=64	=64	=64
!LO:TX:a:t=2	!	!	!	!	!LO:TX:a:t=1.	!	!	!	!	!
!LO:N:vis=0	!	!	!	!	!	!	!	!	!	!
1.r	.	4.c\	Vir-	.	2.r	.	.	4.gg\	li-	.
.	.	8c\	-go	.	.	.	.	8gg\	-be-	.
.	.	8B\	glo-	.	.	.	.	8gg\	-ra	.
.	.	8A\	-ri-	.	.	.	.	8gg\	nos	.
=65	=65	=65	=65	=65	=65	=65	=65	=65	=65	=65
!	!	!	!	!	!LO:TX:a:t=P:problem:oznaczenie dynamiczne na pięciolinii przed nutą	!	!LO:DY:b:rj	!	!	!
.	.	8G/L	-o-	.	4.gn\	Vir-	f	2gg\	sem-	.
.	.	8F#X/	.	.	.	.	.	.	.	.
.	.	8G/	.	.	.	.	.	.	.	.
.	.	8A/	.	.	8g\	-go	.	.	.	.
.	.	8B/	.	.	8f\	glo-	.	4gg\	-per,	.
.	.	8c/J	.	.	8e\	-ri-	.	.	.	.
!	!	!LO:LB:g=original	!	!	!	!	!	!	!	!
=66	=66	=66	=66	=66	=66	=66	=66	=66	=66	=66
!	!	!	!	!	!	!	!	!LO:TX:a:t=P:problem:oznaczenie dynamiczne na pięciolinii przed nutą	!	!LO:DY:b:rj
4.G\	Vir-	2d\	.	.	4.d\	-o-	.	4.dd\	li-	p
8G\	-go	.	.	.	8e\	.	.	8dd\	-be-	.
8F\	glo-	4d\	-sa	.	8f\L	-sa	.	8dd\	-ra	.
8E\	-ri-	.	.	.	8g\J	.	.	8dd\	nos	.
!	!	!	!	!	!LO:LB:g=original	!	!	!	!	!
=67	=67	=67	=67	=67	=67	=67	=67	=67	=67	=67
!	!	!	!	!	!LO:TX:a:t=P:problem:oznaczenie dynamiczne na pięciolinii przed nutą	!	!LO:DY:b:rj	!	!	!
4D/	-o-	4.f\	Vir-	.	4.a\	Vir-	f	2dd\	sem-	.
4D/	-sa	.	.	.	.	.	.	.	.	.
.	.	8f\	-go	.	8a\	-go	.	.	.	.
4D/	et	8e\L	glo-	.	8g\	glo-	.	4dd\	-per	.
.	.	8d\J	-ri-	.	8f\	-ri-	.	.	.	.
!	!	!	!	!	!	!	!	!LO:LB:g=original	!	!
=68	=68	=68	=68	=68	=68	=68	=68	=68	=68	=68
!	!	!	!	!	!	!	!	!LO:TX:a:t=2	!	!
!	!	!	!	!	!	!	!	!LO:N:vis=0	!	!
2A\	be-	4.c#X\	-o-	.	4e\	-o-	.	1.r	.	.
.	.	.	.	.	4e\	-sa	.	.	.	.
.	.	8c#\	-sa,	.	.	.	.	.	.	.
!	!	!LO:TX:t=P:problem:nuta przez kreskę taktową	!	!	!	!	!	!	!	!
[>4B-X\	-ne-	[y4d\	et	.	4g\	et	.	.	.	.
!LO:LB:g=original	!	!	!	!	!	!	!	!	!	!
=69	=69	=69	=69	=69	=69	=69	=69	=69	=69	=69
!	!	!LO:N:xstem:cue	!	!	!	!	!	!	!	!
4B-X\]	.	8d\]	.	.	4d\	be-	.	.	.	.
.	.	8d\	be-	.	.	.	.	.	.	.
2A\	-dic-	4d\	-ne-	.	4f\	-ne-	.	.	.	.
.	.	4c#X\	-dic-	.	4e\	-dic-	.	.	.	.
=70	=70	=70	=70	=70	=70	=70	=70	=70	=70	=70
4D\	-ta	2d\	-ta,	.	2f\	-ta,	.	4.dd\	Vir-	.
4r	.	.	.	.	.	.	.	.	.	.
.	.	.	.	.	.	.	.	8dd\	-go	.
4r	.	4r	.	.	4r	.	.	8cc\	glo-	.
.	.	.	.	.	.	.	.	8b\	-ri-	.
!	!	!LO:LB:g=original	!	!	!	!	!	!	!	!
=71	=71	=71	=71	=71	=71	=71	=71	=71	=71	=71
!	!	!LO:TX:a:t=1.	!	!	!LO:TX:a:t=P:problem:oznaczenie dynamiczne na pięciolinii przed nutą	!	!LO:DY:b:rj	!	!	!
4.D/	Vir-	2.r	.	.	4.f\	Vir-	f	4.a\	-o-	.
8D/	-go	.	.	.	8f\	-go	.	8b\	.	.
8C/	glo-	.	.	.	8e\	glo-	.	8cc\L	-sa	.
8BBn/	-ri-	.	.	.	8d\	-ri-	.	8dd\J	.	.
=72	=72	=72	=72	=72	=72	=72	=72	=72	=72	=72
!	!	!	!	!	!	!	!	!LO:TX:a:t=P:problem:oznaczenie dynamiczne na pięciolinii przed nutą	!	!LO:DY:b:rj
4AA/	-o-	4.c\	Vir-	.	4a\	-o-	.	4.ee\	Vir-	p
4AA/	-sa	.	.	.	4a\	-sa	.	.	.	.
.	.	8c\	-go	.	.	.	.	8ee\	-go	.
4AA/	et	8B\	glo-	.	4e\	et	.	8dd\	glo-	.
.	.	8A\	-ri-	.	.	.	.	8cc\	-ri-	.
!	!	!	!	!	!LO:LB:g=original	!	!	!	!	!
=73	=73	=73	=73	=73	=73	=73	=73	=73	=73	=73
2E\	be-	4G#X/	-o-	.	2e\	be-	.	4b\	-o-	.
.	.	8G#/	-sa,	.	.	.	.	4b\	-sa	.
.	.	8G#/	et	.	.	.	.	.	.	.
!	!	!LO:TX:t=P:problem:nuta przez kreskę taktową	!	!	!	!	!	!	!	!
[>4F\	-ne-	[y4A/	be-	.	4d\	-ne-	.	4dd\	et	.
=74	=74	=74	=74	=74	=74	=74	=74	=74	=74	=74
!	!	!LO:N:xstem:cue	!	!	!	!	!	!	!	!
4F\]	.	8A/]	.	.	4d\	-dic-	.	4a\	be-	.
.	.	8A/	-ne-	.	.	.	.	.	.	.
!	!	!	!	!	!	!	!	!LO:LB:g=original	!	!
2E\	-dic-	4A/	-dic-	.	2e\	-ta	.	4cc\	-ne-	.
.	.	4G#X/	.	.	.	.	.	4b\	-dic-	.
!LO:LB:g=original	!	!	!	!	!	!	!	!	!	!
=75	=75	=75	=75	=75	=75	=75	=75	=75	=75	=75
4AA/	-ta	4A\	-ta	.	4e\	et	.	4cc#X\	-ta	.
4A\	be-	4c\	be-	.	4e\	be-	.	4a\	be-	.
4G#X\	-ne-	4B\	-ne-	.	4e\	-ne-	.	4e/	-ne-	.
=76	=76	=76	=76	=76	=76	=76	=76	=76	=76	=76
!	!	!	!	!	!	!	!	!LO:TX:a:t=P:problem:oznaczenie dynamiczne na pięciolinii przed nutą	!	!LO:DY:b:rj
2A\	-dic-	2.c\	-dic-	.	2.e\	-dic-	.	2.a\	-dic-	f
4AA/	.	.	.	.	.	.	.	.	.	.
=77	=77	=77	=77	=77	=77	=77	=77	=77	=77	=77
!LO:N:vis=0	!	!LO:N:vis=0	!	!	!	!	!	!LO:TX:a:t=2	!	!
0.E	-cta.	0.B;>	-ta	.	0.e	-ta.	.	0.g#X	-ta.	.
=78	=78	=78	=78	=78	=78	=78	=78	=78	=78	=78
.	.	.	.	.	.	.	.	.	.	.
=79	=79	=79	=79	=79	=79	=79	=79	=79	=79	=79
.	.	.	.	.	.	.	.	.	.	.
=80	=80	=80	=80	=80	=80	=80	=80	=80	=80	=80
.	.	.	.	.	.	.	.	.	.	.
==	==	==	==	==	==	==	==	==	==	==
*-	*-	*-	*-	*-	*-	*-	*-	*-	*-	*-
!!!system-decoration: [(s1,s2,s3,s4)]
!!!RDF**kern: > = above
!!!RDF**kern: < = below
!!!EED: Mateusz Mrugas
!!!EST: 2021-01-17
!!!ENC: Andrzej Gręziak
!!!END: 2021-01-13
